svgs/sharp-solid/file-image.svg

<svg xmlns="http://www.w3.org/2000/svg" viewBox="0 0 384 512"><!--! Font Awesome Pro 6.6.0 by @fontawesome - https://fontawesome.com License - https://fontawesome.com/license (Commercial License) Copyright 2024 Fonticons, Inc. --><path d="M224 0L0 0 0 512l384 0 0-352-160 0L224 0zm32 0l0 128 128 0L256 0zM96 224a32 32 0 1 1 0 64 32 32 0 1 1 0-64zM320 448l-128 0-64 0-64 0 0-32 64-88 32.5 44.7L224 288l96 128 0 32z"/></svg>

<svg xmlns="http://www.w3.org/2000/svg" viewBox="0 0 384 512"><!--! Font Awesome Pro 6.4.2 by @fontawesome - https://fontawesome.com License - https://fontawesome.com/license (Commercial License) Copyright 2023 Fonticons, Inc. --><path d="M224 0H0V512H384V160H224V0zm32 0V128H384L256 0zM96 224a32 32 0 1 1 0 64 32 32 0 1 1 0-64zM320 448H192 128 64V416l64-88 32.5 44.7L224 288l96 128v32z"/></svg>
